X: 180
M: 6/8
L: 1/8
K: F
V: 1
c |\
|: c |\
cd_e edc | cBA G2A | Bcd dcB | BAG F2c |\
fca  fca | fca fed | cdB ABG | F3- F2 :|
V: 2 clef=bass middle=d
z |\
f3 F3 | f3 F3 | f3 F3  | c3  C3 |\
f3 F3 |f3 F2d | e3 f2g | c'3 c2 :|
|: z |\
^f3 d3 | g3 G2=f | =e3 c3   | F3 f3 |\
 F3 f3 | F3 f2b  | a2b c'2c | f3 F2 :|

